X: 362
T: Missa Ecce sacerdos magnus Kyrie
C: Giovanni Perluigi da Palestrina
L: 1/4
M: 4/2
N: Derived from Kyrie_28.krn
%%staves [1 2 3 4]
V: 1 clef=treble
V: 2 clef=treble
V: 3 clef=treble-8
V: 4 clef=bass
K: C
[V:1] d8 | 
[V:2] z8 | 
[V:3] z4d4- | 
[V:4] z8 | 
[V:1] d8 | 
[V:2] z8 | 
[V:3] d2e2f2d2 | 
[V:4] z8 | 
[V:1] B8 | 
[V:2] z4G,4- | 
[V:3] g2>^f2gag2- | 
[V:4] z8 | 
[V:1] d8 | 
[V:2] G,2A,2B,2G,2 | 
[V:3] g2fed2g2- | 
[V:4] z8 | 
[V:1] e8 | 
[V:2] C2>D2EFG2- | 
[V:3] gfedc4 | 
[V:4] z8 | 
[V:1] d8 | 
[V:2] G2FEF2G2 | 
[V:3] d6cB | 
[V:4] D,6E,2 | 
[V:1] d8 | 
[V:2] A4G4- | 
[V:3] A4B3c | 
[V:4] F,2D,2G,3A, | 
[V:1] z8 | 
[V:2] G2F2E4 | 
[V:3] d4A4 | 
[V:4] B,CD4^C2 | 
[V:1] d8 | 
[V:2] F2>G2A2_B2 | 
[V:3] d2>e2fdg2- | 
[V:4] D6G,2 | 
[V:1] d8 | 
[V:2] A4G2D2 | 
[V:3] g2^f2g4 | 
[V:4] D4G,4- | 
[V:1] B8 | 
[V:2] D2D2G4 | 
[V:3] z2G2G2G2 | 
[V:4] G,4z4 | 
[V:1] c8 | 
[V:2] E2F4E2 | 
[V:3] A2FGABc2- | 
[V:4] z8 | 
[V:1] d8 | 
[V:2] D4G4 | 
[V:3] c2BAB4 | 
[V:4] z2G,2G,2G,2 | 
[V:1] c8 | 
[V:2] E2F4ED | 
[V:3] c4z4 | 
[V:4] A,2F,G,A,B,C2- | 
[V:1] G8 | 
[V:2] E2D2G,4 | 
[V:3] z2d2d2d2 | 
[V:4] C2B,A,B,4 | 
[V:1] G8 | 
[V:2] z8 | 
[V:3] e2cdefg2 | 
[V:4] C2E2>D2B,2 | 
[V:1] z8 | 
[V:2] z2G2G2G2 | 
[V:3] e2>d2efg2- | 
[V:4] C8 | 
[V:1] c8 | 
[V:2] A4G4 | 
[V:3] g2f4e2 | 
[V:4] A,2>B,2C4 | 
[V:1] c8 | 
[V:2] A2>G2E2F2 | 
[V:3] f4c3d | 
[V:4] F,2>G,2A,3G, | 
[V:1] c8 | 
[V:2] G2A2>G2G2- | 
[V:3] e2A2z4 | 
[V:4] E,2F,2>E,2C,2 | 
[V:1] A8 | 
[V:2] G2FE2<F2E/ D/ | 
[V:3] z2d2d2d2 | 
[V:4] D,8 | 
[V:1] c8 | 
[V:2] C4z4 | 
[V:3] e4cdef | 
[V:4] z2A,2A,2A,2 | 
[V:1] B8 | 
[V:2] z8 | 
[V:3] g3f/ e/d2g2- | 
[V:4] B,2G,2>A,2B,C | 
[V:1] A8 | 
[V:2] z2D2D2D2 | 
[V:3] g2fe^f4 | 
[V:4] D4z4 | 
[V:1] G8 | 
[V:2] E2CDEFG2 | 
[V:3] g2>f2e2d2- | 
[V:4] z2C2C2_B,2 | 
[V:1] A8 | 
[V:2] F2E2F4- | 
[V:3] d2^c2d4 | 
[V:4] A,4D,E,F,G, | 
[V:1] c8 | 
[V:2] F2EDE4 | 
[V:3] z2A2A2A2 | 
[V:4] A,4z4 | 
[V:1] B8 | 
[V:2] D4G4- | 
[V:3] B2G2>A2Bc | 
[V:4] z8 | 
[V:1] A8 | 
[V:2] G2FE^F4 | 
[V:3] d3c/ B/A2d2 | 
[V:4] z2D,2D,2D,2 | 
[V:1] G8- | 
[V:2] G2>F2E4 | 
[V:3] B2c4BA | 
[V:4] E,2C,2>D,2E,F, | 
[V:1] G8 | 
[V:2] D8 | 
[V:3] B8 | 
[V:4] G,8 | 
[V:1] d8 | 
[V:2] G8 | 
[V:3] B8 | 
[V:4] G,8 | 
[V:1] e4d2e2- | 
[V:2] G8 | 
[V:3] c4B4 | 
[V:4] C,4G,4 | 
[V:1] edc4BA | 
[V:2] E8 | 
[V:3] c2>d2efg2- | 
[V:4] A,6G,F, | 
[V:1] B2GABcd2- | 
[V:2] G8 | 
[V:3] gfe2d4 | 
[V:4] E,2>F,2G,4 | 
[V:1] d2c4BA | 
[V:2] A8 | 
[V:3] f2>e2c2d2 | 
[V:4] F,8 | 
[V:1] cB2<e2dc2- | 
[V:2] G8 | 
[V:3] e8 | 
[V:4] E,2>D,2C,4 | 
[V:1] c2BAB4- | 
[V:2] G8- | 
[V:3] d4G4 | 
[V:4] G,4z2D2 | 
[V:1] B2c2d4 | 
[V:2] G4z4 | 
[V:3] z4z2d2 | 
[V:4] E3D/ C/B,2G,2 | 
[V:1] z4z2d2 | 
[V:2] G8 | 
[V:3] e3d/ c/B2G2 | 
[V:4] C3B,/ A,/G,4 | 
[V:1] e3d/ c/B2G2 | 
[V:2] G8 | 
[V:3] c3B/ A/G4 | 
[V:4] z4z2G,2 | 
[V:1] c3B/ A/G4 | 
[V:2] E8 | 
[V:3] z2c2>B2e2 | 
[V:4] A,3G,/ F,/E,2C,2 | 
[V:1] z4z2d2 | 
[V:2] F8 | 
[V:3] d2c2>B2cB | 
[V:4] F,2>E,2D,4 | 
[V:1] e3d/ c/B2c2 | 
[V:2] G8 | 
[V:3] c2>d2e4 | 
[V:4] C,4z2C2 | 
[V:1] A8 | 
[V:2] F8 | 
[V:3] z4z2f2 | 
[V:4] D3C/ B,/A,2F,2 | 
[V:1] A4z2G2 | 
[V:2] C8 | 
[V:3] e2c2e4 | 
[V:4] A,3G,/ F,/E,2C,2 | 
[V:1] A3G/ F/E2G2 | 
[V:2] C8 | 
[V:3] A2>B2cde2 | 
[V:4] F,3E,/ D,/C,4 | 
[V:1] D2F2E4 | 
[V:2] z8 | 
[V:3] B2d4^c2 | 
[V:4] G,2D,2A,4 | 
[V:1] D2d4c_B | 
[V:2] F8 | 
[V:3] d8- | 
[V:4] D,8 | 
[V:1] A2_B2A4- | 
[V:2] F8 | 
[V:3] d4z4 | 
[V:4] z2D4C_B, | 
[V:1] A2DEFGA2- | 
[V:2] F8 | 
[V:3] z2d4c_B | 
[V:4] A,2_B,4A,G, | 
[V:1] A2G2z2d2- | 
[V:2] D8 | 
[V:3] A2_B4AG | 
[V:4] F,2G,4F,E, | 
[V:1] d2c_BA2c2- | 
[V:2] F8 | 
[V:3] A4A3B | 
[V:4] D,2F,4E,D, | 
[V:1] c2BA2<G2A | 
[V:2] E8 | 
[V:3] c4z2g2- | 
[V:4] C,2>D,2E,3F, | 
[V:1] _B6A2 | 
[V:2] D8 | 
[V:3] g2fed2f2- | 
[V:4] G,6D,2 | 
[V:1] A4G4- | 
[V:2] C8 | 
[V:3] f2ede2c2- | 
[V:4] A,4z4 | 
[V:1] G4z4 | 
[V:2] D8 | 
[V:3] c2BAB2d2- | 
[V:4] G,6F,E, | 
[V:1] z8 | 
[V:2] F8 | 
[V:3] d2cBA2c2- | 
[V:4] D,2F,4E,D, | 
[V:1] z4z2g2- | 
[V:2] E8 | 
[V:3] c2BA2<G2A | 
[V:4] C,2>D,2E,3F, | 
[V:1] g2fed2f2- | 
[V:2] D8 | 
[V:3] Bcd2B2d2- | 
[V:4] G,6D,2 | 
[V:1] fedcB2A2- | 
[V:2] D8- | 
[V:3] dcBAG2A2 | 
[V:4] F,2G,4^F,2 | 
[V:1] AGG4^FE | 
[V:2] D4-D4- | 
[V:3] B8 | 
[V:4] G,8 | 
[V:1] ^F8 | 
[V:2] D8 | 
[V:3] A8 | 
[V:4] D,8 | 
[V:1] z8 | 
[V:2] z8 | 
[V:3] d8 | 
[V:4] D,4G,2G,2- | 
[V:1] z8 | 
[V:2] z8 | 
[V:3] d8 | 
[V:4] G,2^F,E,F,4 | 
[V:1] z8 | 
[V:2] D4G2G2- | 
[V:3] B8 | 
[V:4] G,2>F,2E,4 | 
[V:1] A4d2d2- | 
[V:2] G2^FEF4 | 
[V:3] d8 | 
[V:4] D,8 | 
[V:1] d2^cBc4 | 
[V:2] G4A4 | 
[V:3] e8 | 
[V:4] z4A,4 | 
[V:1] d2>c2B4 | 
[V:2] z2D2G2G2- | 
[V:3] d8 | 
[V:4] B,2G,2>A,2B,C | 
[V:1] A4z2d2- | 
[V:2] G2^FEF4 | 
[V:3] d8 | 
[V:4] D4D,4 | 
[V:1] dcB4AG | 
[V:2] G4z2A2- | 
[V:3] z8 | 
[V:4] G,2G,4^F,E, | 
[V:1] A2B2A2d2- | 
[V:2] A2G4^FE | 
[V:3] d8 | 
[V:4] ^F,2G,2D,4 | 
[V:1] dcB2A4 | 
[V:2] ^F2G4F2 | 
[V:3] d8 | 
[V:4] z8 | 
[V:1] G4z4 | 
[V:2] G3F/ E/D2E2- | 
[V:3] B8 | 
[V:4] G,4G,2G,2 | 
[V:1] z8 | 
[V:2] EDCB,A,B,C2- | 
[V:3] c8 | 
[V:4] A,2>G,2F,2E,2 | 
[V:1] z2d2d2d2 | 
[V:2] C2B,A,B,4 | 
[V:3] d8 | 
[V:4] D,4G,4 | 
[V:1] e8 | 
[V:2] C4z4 | 
[V:3] c8 | 
[V:4] C,4z2C2- | 
[V:1] d8 | 
[V:2] z2D2D2D2 | 
[V:3] G8 | 
[V:4] C2B,A,B,2D2- | 
[V:1] z4z2d2- | 
[V:2] E4D4 | 
[V:3] G8 | 
[V:4] D2C4B,2 | 
[V:1] d2c2A2c2- | 
[V:2] E4z2A2- | 
[V:3] z8 | 
[V:4] A,2>G,2F,4 | 
[V:1] c2BAG2E2 | 
[V:2] A2G2E2G2- | 
[V:3] c8 | 
[V:4] C,4z2C2 | 
[V:1] A6GF | 
[V:2] GFF4ED | 
[V:3] c8 | 
[V:4] A,2F,2C4 | 
[V:1] G2>F2E4 | 
[V:2] E4z2G2- | 
[V:3] c8 | 
[V:4] C,8 | 
[V:1] D2>E2F2D2 | 
[V:2] G2F2D2F2- | 
[V:3] A8 | 
[V:4] D,8 | 
[V:1] G8- | 
[V:2] F2EDE4 | 
[V:3] c8 | 
[V:4] C,8 | 
[V:1] G4z2d2- | 
[V:2] D2G2>F2D2 | 
[V:3] B8 | 
[V:4] G,8 | 
[V:1] d2c2A2c2- | 
[V:2] F2E2C4 | 
[V:3] A8 | 
[V:4] z8 | 
[V:1] c2BAB4 | 
[V:2] D8- | 
[V:3] G8 | 
[V:4] z4z2G,2- | 
[V:1] A2d4c2 | 
[V:2] D4z4 | 
[V:3] A8 | 
[V:4] G,2F,2D,2F,2- | 
[V:1] A2c2>B2A2 | 
[V:2] z2G4F2 | 
[V:3] c8 | 
[V:4] F,2E,D,E,2F,2 | 
[V:1] G2>A2B2G2- | 
[V:2] D2E2D4- | 
[V:3] B8 | 
[V:4] G,8 | 
[V:1] G2^FEF4 | 
[V:2] D8 | 
[V:3] A8 | 
[V:4] D,8 | 
[V:1] G8 |]  
[V:2] D8 |]  
[V:3] G8 |]  
[V:4] G,8 |]  

